src/assets/pintrest_grey.svg

<svg width="19" height="19" viewBox="0 0 19 19" fill="none" xmlns="http://www.w3.org/2000/svg">
<path id="Vector" d="M9.37887 0C4.37752 0 0.322266 4.05345 0.322266 9.05256C0.322266 12.7585 2.55407 15.943 5.7441 17.3454C5.71984 16.7149 5.74006 15.9551 5.90178 15.2681C6.07564 14.5326 7.0662 10.3337 7.0662 10.3337C7.0662 10.3337 6.7751 9.75575 6.7751 8.90304C6.7751 7.56132 7.55138 6.55907 8.52173 6.55907C9.34653 6.55907 9.74275 7.17739 9.74275 7.91695C9.74275 8.74542 9.2131 9.98207 8.94221 11.1298C8.7158 12.0916 9.42335 12.8716 10.3735 12.8716C12.0878 12.8716 13.2441 10.6691 13.2441 8.0584C13.2441 6.07411 11.9058 4.59094 9.47591 4.59094C6.73062 4.59094 5.01634 6.63989 5.01634 8.92728C5.01634 9.71534 5.25084 10.273 5.61472 10.7014C5.78049 10.8994 5.80475 10.9803 5.7441 11.2066C5.69963 11.3723 5.60259 11.7724 5.55812 11.934C5.49747 12.1644 5.31149 12.2452 5.10529 12.1603C3.83979 11.6431 3.24949 10.2609 3.24949 8.70097C3.24949 6.13069 5.42065 3.04716 9.72254 3.04716C13.1794 3.04716 15.4557 5.54874 15.4557 8.23217C15.4557 11.7845 13.4786 14.4356 10.5676 14.4356C9.58911 14.4356 8.67132 13.9062 8.35596 13.3081C8.35596 13.3081 7.83035 15.3934 7.71715 15.7975C7.52712 16.4967 7.15111 17.1918 6.80744 17.7374C7.64109 17.9832 8.50566 18.1084 9.37483 18.1092C14.3762 18.1092 18.4314 14.0557 18.4314 9.05661C18.4314 4.05749 14.3802 0 9.37887 0Z" fill="#2E4049"/>
</svg>

<svg width="19" height="19" fill="none" xmlns="http://www.w3.org/2000/svg"><path d="M9.379 0C4.378 0 .322 4.053.322 9.053c0 3.705 2.232 6.89 5.422 8.292-.024-.63-.004-1.39.158-2.077l1.164-4.934s-.29-.578-.29-1.431c0-1.342.775-2.344 1.746-2.344.825 0 1.22.618 1.22 1.358 0 .828-.529 2.065-.8 3.213-.226.962.481 1.742 1.431 1.742 1.715 0 2.871-2.203 2.871-4.814 0-1.984-1.338-3.467-3.768-3.467-2.745 0-4.46 2.049-4.46 4.336 0 .788.235 1.346.599 1.774.165.198.19.28.13.506-.045.165-.142.565-.187.727-.06.23-.247.311-.453.226-1.265-.517-1.856-1.9-1.856-3.459 0-2.57 2.172-5.654 6.474-5.654 3.456 0 5.733 2.502 5.733 5.185 0 3.553-1.977 6.204-4.888 6.204-.979 0-1.897-.53-2.212-1.128 0 0-.526 2.085-.639 2.49-.19.699-.566 1.394-.91 1.94a9.108 9.108 0 0 0 2.568.371c5.001 0 9.056-4.053 9.056-9.052 0-5-4.05-9.057-9.052-9.057Z" fill="#2E4049"/></svg>
